hero/solid/user-circle.svg

<svg width="24" height="24" viewBox="0 0 24 24" fill="none" xmlns="http://www.w3.org/2000/svg">
<path fill-rule="evenodd" clip-rule="evenodd" d="M18.6854 19.0971C20.5721 17.3191 21.75 14.7971 21.75 12C21.75 6.61522 17.3848 2.25 12 2.25C6.61522 2.25 2.25 6.61522 2.25 12C2.25 14.7971 3.42785 17.3191 5.31463 19.0971C7.06012 20.7419 9.41234 21.75 12 21.75C14.5877 21.75 16.9399 20.7419 18.6854 19.0971ZM6.14512 17.8123C7.51961 16.0978 9.63161 15 12 15C14.3684 15 16.4804 16.0978 17.8549 17.8123C16.3603 19.3178 14.289 20.25 12 20.25C9.711 20.25 7.63973 19.3178 6.14512 17.8123ZM15.75 9C15.75 11.0711 14.0711 12.75 12 12.75C9.92893 12.75 8.25 11.0711 8.25 9C8.25 6.92893 9.92893 5.25 12 5.25C14.0711 5.25 15.75 6.92893 15.75 9Z" fill="#0F172A"/>
</svg>

<svg viewBox="0 0 24 24" xmlns="http://www.w3.org/2000/svg"><path fill-rule="evenodd" d="M18.685 19.097h0c1.95-1.85 3.06-4.41 3.06-7.1 0-5.385-4.37-9.75-9.75-9.75 -5.39 0-9.75 4.36-9.75 9.75v0c-.01 2.68 1.1 5.25 3.06 7.09v0c1.8 1.7 4.19 2.65 6.68 2.65v0c2.48 0 4.87-.95 6.68-2.66ZM6.145 17.8l-.001-.001c1.42-1.78 3.57-2.82 5.85-2.82h-.001c2.27-.01 4.43 1.03 5.855 2.81v0c-1.55 1.56-3.66 2.44-5.86 2.43l0-.001c-2.2 0-4.31-.88-5.86-2.44Zm9.605-8.82v0c0 2.07-1.68 3.75-3.75 3.75 -2.08 0-3.75-1.68-3.75-3.75v0c0-2.08 1.67-3.75 3.75-3.75 2.07 0 3.75 1.67 3.75 3.75Z"/></svg>
